X:1
T:Title
%%score 1 ( 2 3 )
L:1/8
Q:1/4=90
M:4/4
K:F
V:1 treble nm="Strings 1, Soprano"
V:2 bass nm="Strings 1, Bass"
V:3 bass 
V:1
 [Fc]3 [Fd] [Fc]2 [FA]2 | [FA]2 [Fc]2 [CF]4 | [FA]3 [FB] [FA]2 [CF]2 | F2 [FA]2 [EG]4 | %4
w: 1.~By~ the~ liv ing~|grace~ of~ God~|I~ will~ la bor,~|watch,~ and~ pray,~|
 [Fc]3 [Fd] [Fc]2 [FA]2 | [FA]2 [Fc]2 [CF]4 | [FA]3 [GB] [FA]2 [EG]2 | F6 [FA]2 | [Ac]6 [Ac]2 | %9
w: Till~ this~ mor tal~|life~ shall~ end~|In~ su per nal~|day.~ *||
 [FA]6 z2 | [FA]3 [FB] [FA]2 [CF]2 | F2 [FA]2 [EG]4 | [Fc]3 [Fd] [Fc]2 [FA]2 | [FA]2 [Fc]2 [CF]4 | %14
w: |||||
 [FA]3 [GB] [FA]2 [EG]2 | F2 D2 C2 z2 |] %16
w: ||
V:2
 [F,A,]3 [F,B,] [F,A,]2 [F,C]2 | [F,C]2 [F,A,]2 [F,A,]4 | [F,C]3 [F,D] [F,C]2 [F,A,]2 | %3
 [A,C]2 [F,C]2 [C,C]4 | [F,A,]3 [F,B,] [F,A,]2 [F,C]2 | [F,C]2 [F,A,]2 [F,A,]4 | %6
 [C,C]3 [C,C] [C,C]2 [C,B,]2 | [F,A,]6 z2 | z2 [F,F]2 [F,F]2 z2 | z2 [F,C]2 [F,C]2 z2 | %10
 [F,C]3 [F,D] [F,C]2 [F,A,]2 | [A,C]2 [F,C]2 [C,C]4 | [F,A,]3 [F,B,] [F,A,]2 [F,C]2 | %13
 [F,C]2 [F,A,]2 [F,A,]4 | [C,C]3 [C,C] [C,C]2 [C,B,]2 | A,2 z2 z4 |] %16
V:3
 x8 | x8 | x8 | x8 | x8 | x8 | x8 | x8 | x8 | x8 | x8 | x8 | x8 | x8 | x8 | %15
 F,2- [F,-B,]2 [F,A,]2 z2 |] %16

